X:9053
T:La Romería de San Andrés (Arrg.)
R:Xiraldilla
C:Tradicional
S:Música Tradicional Asturiana, (C) Tello & Tito. Asturies, 2001.
S:http://pagina.de/MusTradAst <telloytito@asturies.org>
A:Asturies
G:Arrg.
Z:Les cuarenta principales
M:3/4
L:1/4
Q:3/4=69
K:C
G
|: "C"ccc|"C"c2 d|"Em"BGA|"Em"B2 c|"F"AFG|"F"A2 B|[1 "C"G3-|"C"G2 G :|[2 "C"G3-|"C"G C/D/ E/F/|
|: "C"GEG|"F"AFA|"C"G2 E|"C"C C/D/ E/F/|"C"GEG|"Dm"FDF|[1 "C"E3-|"C"E C/D/ E/F/ :|[2 "Dm"FDB,|"C"C3-|"C"C2 G||


